fs/star_three_quarter_24_regular.svg

<svg viewBox="0 0 24 24" fill="none" xmlns="http://www.w3.org/2000/svg" height="1em" width="1em">
  <path d="M13.211 3.10251L15 6.7275V6.73145L15.567 7.88023L20.8395 8.64638C21.9468 8.80728 22.3889 10.168 21.5877 10.9491L17.7724 14.668L18.6731 19.9192C18.8622 21.022 17.7047 21.863 16.7143 21.3424L11.9994 18.8636L7.28448 21.3424C7.07736 21.4513 6.86293 21.5006 6.65504 21.5004C5.86803 21.501 5.17402 20.7921 5.32374 19.9192L6.2244 14.668L2.40916 10.9491C1.60791 10.168 2.05005 8.80728 3.15735 8.64638L8.42988 7.88023L10.7878 3.10251C11.0356 2.60049 11.5176 2.34964 11.9994 2.34998C12.4812 2.34963 12.9632 2.60048 13.211 3.10251ZM15 9.28388V18.7464L17.1433 19.8732L16.2807 14.8438C16.2056 14.4059 16.3508 13.9591 16.6689 13.6489L20.323 10.0871L15.2732 9.3533C15.179 9.33961 15.0875 9.31618 15 9.28388Z" fill="#212121"/>
</svg>

<svg viewBox="0 0 24 24" fill="none" xmlns="http://www.w3.org/2000/svg" height="1em" width="1em">
  <path d="M13.211 3.103 15 6.727v.004l.567 1.15 5.273.765c1.107.161 1.549 1.522.748 2.303l-3.816 3.719.901 5.251c.19 1.103-.968 1.944-1.959 1.423L12 18.864l-4.715 2.478a1.343 1.343 0 0 1-.629.158c-.787.001-1.481-.708-1.331-1.58l.9-5.252-3.815-3.719c-.801-.781-.359-2.142.748-2.303L8.43 7.88l2.358-4.777c.248-.503.73-.753 1.211-.753.482 0 .964.25 1.212.753ZM15 9.283v9.463l2.143 1.127-.862-5.03a1.35 1.35 0 0 1 .388-1.194l3.654-3.562-5.05-.734a1.349 1.349 0 0 1-.273-.07Z" fill="#212121"/>
</svg>
